app/assets/img/ic-food.svg

<svg height="250" viewBox="0 0 250 250" width="250" xmlns="http://www.w3.org/2000/svg"><g fill="none" fill-rule="evenodd"><path d="m115.740741 92.5245098h-20.9694992v-72.9166667h-20.9694989v72.9166667h-20.9694989v-72.9166667h-20.9694989v72.9166667c0 22.0833332 17.4046841 40.0000002 39.3178105 41.3541662v94.0625h26.2118736v-94.0625c21.9131268-1.354166 39.3178108-19.270833 39.3178108-41.3541662v-72.9166667h-20.969499zm52.423747-31.25v83.3333332h26.211874v83.333333h26.211873v-208.3333329c-28.937908 0-52.423747 23.3333334-52.423747 41.6666667z" fill="#000" fill-rule="nonzero"/><path d="m0 0h250v250h-250z"/></g></svg>

<svg xmlns="http://www.w3.org/2000/svg" width="250" height="250" viewBox="0 0 250 250">
  <g fill="none" fill-rule="evenodd">
    <path fill="#000000" fill-rule="nonzero" d="M115.740741,92.5245098 L94.7712418,92.5245098 L94.7712418,19.6078431 L73.8017429,19.6078431 L73.8017429,92.5245098 L52.832244,92.5245098 L52.832244,19.6078431 L31.8627451,19.6078431 L31.8627451,92.5245098 C31.8627451,114.607843 49.2674292,132.52451 71.1805556,133.878676 L71.1805556,227.941176 L97.3924292,227.941176 L97.3924292,133.878676 C119.305556,132.52451 136.71024,114.607843 136.71024,92.5245098 L136.71024,19.6078431 L115.740741,19.6078431 L115.740741,92.5245098 Z M168.164488,61.2745098 L168.164488,144.607843 L194.376362,144.607843 L194.376362,227.941176 L220.588235,227.941176 L220.588235,19.6078431 C191.650327,19.6078431 168.164488,42.9411765 168.164488,61.2745098 Z"/>
    <polygon points="0 0 250 0 250 250 0 250"/>
  </g>
</svg>
